X:45
T:Woodchester Mansion
C:Taz Tarry     © 2 July 2020
Q:3/8=110
M:6/8
L:1/8
K:D
FAd fed|FAd fed|gfe dcB|ABA GFE|
FAd fed|FAd fed|gfe ABc|dfe d3:|
!slide!f2 f e2 e|dfe dcB|ABA =c2!slide!^c/c/|dfe dcB|
!slide!f2 f e2 e|dfe dcB|FDF  BGB|dfe d3:|
